icons/speaker-cross.svg

<svg xmlns="http://www.w3.org/2000/svg" width="24" height="24" viewBox="0 0 24 24">
  <path d="M12.7682213,4.49485721 C12.9179838,4.67457221 13,4.90110511 13,5.13504161 L13,18.8649584 C13,19.4172431 12.5522847,19.8649584 12,19.8649584 C11.7660635,19.8649584 11.5395306,19.7829422 11.3598156,19.6331797 L7,16 L4,16 C2.8954305,16 2,15.1045695 2,14 L2,10 C2,8.8954305 2.8954305,8 4,8 L7,8 L11.3598156,4.36682033 C11.7840925,4.01325625 12.4146572,4.07058032 12.7682213,4.49485721 Z M16.6128994,9.20970461 L16.7071068,9.29289322 L18,10.5850165 L19.2928932,9.29289322 C19.6834175,8.90236893 20.3165825,8.90236893 20.7071068,9.29289322 C21.0675907,9.65337718 21.0953203,10.2206082 20.7902954,10.6128994 L20.7071068,10.7071068 L19.415,12.0000165 L20.7071068,13.2928932 C21.0976311,13.6834175 21.0976311,14.3165825 20.7071068,14.7071068 C20.3466228,15.0675907 19.7793918,15.0953203 19.3871006,14.7902954 L19.2928932,14.7071068 L18,13.4150165 L16.7071068,14.7071068 C16.3165825,15.0976311 15.6834175,15.0976311 15.2928932,14.7071068 C14.9324093,14.3466228 14.9046797,13.7793918 15.2097046,13.3871006 L15.2928932,13.2928932 L16.585,12.0000165 L15.2928932,10.7071068 C14.9023689,10.3165825 14.9023689,9.68341751 15.2928932,9.29289322 C15.6533772,8.93240926 16.2206082,8.90467972 16.6128994,9.20970461 Z"/>
</svg>

<svg xmlns="http://www.w3.org/2000/svg" viewBox="0 0 24 24">
  <path d="M12.77 4.5a1 1 0 0 1 .23.64v13.72a1 1 0 0 1-1.64.77L7 16H4a2 2 0 0 1-2-2v-4c0-1.1.9-2 2-2h3l4.36-3.63a1 1 0 0 1 1.4.12zm3.83 4.7.1.08L18 10.6l1.3-1.3a1 1 0 0 1 1.49 1.32l-.08.1L19.4 12l1.3 1.3a1 1 0 0 1-1.32 1.49l-.1-.08L18 13.4l-1.3 1.3a1 1 0 0 1-1.49-1.32l.08-.1L16.6 12l-1.3-1.3a1 1 0 0 1 1.32-1.49z"/>
</svg>
